resources/icons/20px/geofence.svg

<?xml version="1.0" encoding="utf-8"?>
<!-- Generator: Adobe Illustrator 18.0.0, SVG Export Plug-In . SVG Version: 6.00 Build 0)  -->
<svg version="1.1" id="Layer_1" xmlns="http://www.w3.org/2000/svg" xmlns:xlink="http://www.w3.org/1999/xlink" x="0px" y="0px"
	 viewBox="0 0 20 20" enable-background="new 0 0 20 20" xml:space="preserve">
<g id="add_column_right">
	<g>
		<path fill-rule="evenodd" clip-rule="evenodd" d="M8,11 L8.07523854,11.0027879 L8.20072576,11.0202401 L8.31214252,11.0497381 L8.42322155,11.0936734 L8.52070875,11.1459955 L8.61702235,11.2129277 L8.70714081,11.2929109 C8.74250083,11.3282873 8.77468705,11.3656744 8.80366542,11.4046934 L8.87532883,11.5159379 L8.92877451,11.628664 L8.96415486,11.734007 L8.99309284,11.8819045 L9,12.0010147 L9,18 C9,18.5522847 8.55228475,19 8,19 C7.48716416,19 7.06449284,18.6139598 7.00672773,18.1166211 L7,18 L7,14.414 L1.70710678,19.7071068 C1.31658249,20.0976311 0.683417511,20.0976311 0.292893219,19.7071068 C-0.0675907428,19.3466228 -0.0953202783,18.7793918 0.209704612,18.3871006 L0.292893219,18.2928932 L5.584,13 L2.00398254,13 C1.45169779,13 1.00398254,12.5522847 1.00398254,12 C1.00398254,11.4871642 1.39002273,11.0644928 1.88736142,11.0067277 L2.00398254,11 L8,11 Z M11.0176766,0.000134698653 C11.0871179,0.00139147806 11.1559952,0.00984197044 11.2233617,0.0252529405 C11.286421,0.0394797533 11.3480864,0.0599534708 11.4077917,0.0866337305 L11.5273505,0.150045434 L11.5590914,0.170765836 L11.6586127,0.247517912 L19.6862737,7.27442158 L19.7478709,7.33802521 L19.8162177,7.42383439 L19.8603195,7.49185433 L19.9242206,7.61996763 L19.9642516,7.73702091 L19.9883924,7.84999607 L19.9991381,7.95833993 L19.9985714,8.05858874 L19.9917751,8.13083353 L19.9731078,8.23350067 L19.9358255,8.35524733 L19.897079,8.44445916 L19.8479379,8.53212506 L14.8509554,16.5255016 C14.7907472,16.622791 14.7143204,16.7089856 14.625449,16.7803112 L14.5322488,16.8467427 L14.4368444,16.8997901 L14.3503091,16.9367017 L14.2253784,16.9744988 C14.1541874,16.9907686 14.0808036,16.9995156 14.0070033,17.0001021 L11,17.0001021 L11,12 C11,10.4023191 9.75108004,9.09633912 8.17627279,9.00509269 L8,9 L3,9 L3,6 C3.00038436,5.72719202 3.1114411,5.45889505 3.32121748,5.26551595 L3.41876181,5.18626653 L10.4187618,0.186266529 C10.4548892,0.160461232 10.4921484,0.13740304 10.5302907,0.117050507 C10.5831855,0.0887350354 10.6384087,0.0655528184 10.6949976,0.0474917118 C10.7526707,0.0289239472 10.8108547,0.0160243182 10.8694032,0.0083651549 L11.0176766,0.000134698653 Z"/>
	</g>
</g>
</svg>

<svg xmlns="http://www.w3.org/2000/svg" viewBox="0 0 20 20">
  <path d="m8 11 .075.003.126.017.111.03.111.044.098.052.096.067.09.08q.054.053.097.112l.071.11.054.114.035.105.03.148L9 12V18a1 1 0 0 1-1.993.117L7 18v-3.586l-5.293 5.293a1 1 0 0 1-1.497-1.32l.083-.094L5.584 13h-3.58a1 1 0 0 1-.117-1.993L2.004 11zm3.018-11a1 1 0 0 1 .39.087l.12.063.031.02.1.078 8.027 7.026.062.064.068.086.044.068.064.128.04.117.024.113.011.108v.1l-.007.073-.019.103-.037.121-.039.09-.05.087-4.996 7.994q-.091.147-.226.254l-.093.067-.095.053-.087.037-.125.037a1 1 0 0 1-.218.026H11v-5a3 3 0 0 0-2.824-2.995L8 9H3V6a1 1 0 0 1 .321-.734l.098-.08 7-5a1 1 0 0 1 .45-.178z"/>
</svg>
